X: 113
T: Miss Georgina Mackay's Reel
C: attr. John French (1753-1803)
R: reel
B: "John French Collection", John French ed. p.11 #3
S: http://www.heallan.com/french.asp
Z: 2012 John Chambers <jc:trillian.mit.edu>
M: C
L: 1/8
K: Gm
|: G,G (TGF/G/) DGB,G | A,F (TFE/F/) CFA,F | G,G (GF/G/) DGBd |1 AFcA G/G/G G2 :|2 cfaf g/g/g g2 ||
(Tgfg)d Bdgb | afcf AFcA | Gg(Tgf/g/) (dg)BG | AFcA G/G/G (Gg) |
(Tgfg)d Bdgb | afcf AFcA | GgAa BbdB | AFcA G/G/G G2 |]

%%sep 2 1 500
%%sep 1 1 500

